X: 5396
T: Buddy MacMaster's
R: jig
M: 6/8
K: Dmajor
|:A|DFA dfe|dcd AFD|GBG FAF|GFG EAF|
DF/G/A d2 e|dcd AFD|GBA GEA|FDD D2:|
|:g|fdf afd|BdB Ade|fdf agf|ge^d e2 g|
[1 fd/e/f afd|B/c/dB AFG|Adf gfe|fdc d2:|
[2 fAf eAe|dFd AFD|G/A/BA GEA|FD/D/D D2||

